X: 1
T: North Highland Country Dance
M: 6/8
L: 1/8
R: jig
K: Amix
|:AAA AAA|AAA c2e|AAA AAA|d2c BGB|
AAA AAA|AAA c2A|d2B c2A|d2c BGB:|
|:AAA e3|AAA cAc|AAA edc|d2B BGB|
AAA e3|AAA c2A|d2B c2A|d2c BGB:|
|:A2a a^ga|efe cAc|A2a aeg|ded BGB|
A2a aga|gea aga|1aea aga|geg BGB:|2gag ege|ded BdB||
